X:7
T:Blarney Pilgrim
M:6/8
L:1/8
R:jig
C:Traditional
K:Dmix
D3 DEG | A3 ABc | BAG AGE | GEA GED |
D3 DEG | A3 ABc | BAG AGE | GED D3 :|
|: ded dBG | AGA BGE | ded dBG | AGA B2d |
g2e d2B | AGA BGE | B2G AGE | GAG G3 :|
|: A2D B2D | A2D ABc | BAG AGE | GEA GED |
A2D B2D | A2D ABc | BAG AGE | GED D3 :|

